X: 3259
T: Behind The Haystack
R: jig
M: 6/8
K: Dmajor
|:A|def d2 B|def d2 B|AFE EFE|AFE E2 A|
def d2 B|def d2 B|AFD DED|AFD D2:|
|:A|BcB BAF|ABc d2 B|AF EFE|AFE E2 A|
BcB BAF|ABc dcB|AFD DED|AFD D2:|
|:f|gbg faf|ede fdB|AFE EFE|AFE Eef|
gbg faf|ede fdB|AFD DED|AFD D2:|

